configs/network-icons/arbitrum-one-icon-light.svg

<svg width="30" height="30" viewBox="0 0 30 30" fill="none" xmlns="http://www.w3.org/2000/svg">
<g clip-path="url(#clip0_11424_4297)">
<path d="M15.3558 1.86229C15.4293 1.86229 15.4971 1.88084 15.5649 1.91725L26.5666 8.31569C26.6958 8.38921 26.7757 8.52483 26.7693 8.67187L26.7265 21.4009C26.7265 21.5487 26.6466 21.6836 26.5174 21.7571L15.4785 28.0813C15.4172 28.1184 15.3436 28.1363 15.2694 28.1363C15.1952 28.1363 15.1281 28.1177 15.0603 28.0813L4.05929 21.6836C3.9301 21.6101 3.85015 21.4745 3.85658 21.3274L3.8994 8.59835C3.8994 8.45059 3.97935 8.31569 4.10854 8.24217L15.1531 1.91154C15.2144 1.88084 15.288 1.86229 15.3558 1.86229ZM15.3622 0C14.9689 0 14.5756 0.0985034 14.2251 0.301221L3.18632 6.62542C2.47967 7.03157 2.04283 7.78106 2.04283 8.59264L2 21.3217C2 22.1333 2.43042 22.8828 3.13065 23.2946L14.1323 29.6931C14.4828 29.8958 14.8761 30.0007 15.2694 30.0007C15.6627 30.0007 16.056 29.9022 16.4065 29.6995L27.4453 23.3753C28.1519 22.9699 28.5888 22.2197 28.5888 21.4088L28.6316 8.67972C28.6316 7.86814 28.2012 7.11866 27.501 6.7068L16.4993 0.307645C16.1488 0.104928 15.7555 0 15.3622 0Z" fill="#1B4ADD"/>
<path d="M17.5929 6.93872H15.9825C15.8598 6.93872 15.7548 7.01224 15.712 7.1293L10.5249 21.3452C10.4878 21.4373 10.562 21.5358 10.6598 21.5358H12.2701C12.3929 21.5358 12.4978 21.4623 12.5406 21.3452L17.7278 7.1293C17.7649 7.03722 17.6906 6.93872 17.5929 6.93872ZM14.7719 6.93872H13.1616C13.0389 6.93872 12.9339 7.01224 12.8911 7.1293L7.70968 21.3395C7.67257 21.4316 7.7468 21.5301 7.84459 21.5301H9.45491C9.57768 21.5301 9.68261 21.4566 9.72543 21.3395L14.9069 7.1293C14.944 7.03722 14.8762 6.93872 14.7719 6.93872ZM16.8619 12.4456C16.8191 12.3164 16.6342 12.3164 16.5914 12.4456L15.7556 14.744C15.7313 14.8054 15.7313 14.879 15.7556 14.9411L18.0911 21.3395C18.1339 21.4501 18.2388 21.5301 18.3616 21.5301H19.9719C20.0704 21.5301 20.144 21.4316 20.1068 21.3395L16.8619 12.4456ZM22.922 21.3395L18.2695 8.57973C18.2267 8.45053 18.0418 8.45053 17.999 8.57973L17.1632 10.8781C17.1389 10.9395 17.1389 11.0131 17.1632 11.0752L20.9063 21.3395C20.9491 21.4501 21.054 21.5301 21.1768 21.5301H22.7871C22.8913 21.5365 22.9592 21.4316 22.922 21.3395Z" fill="#1B4ADD"/>
</g>
<defs>
<clipPath id="clip0_11424_4297">
<rect width="26.6316" height="30" fill="white" transform="translate(2)"/>
</clipPath>
</defs>
</svg>

<svg xmlns="http://www.w3.org/2000/svg" fill="none" viewBox="0 0 30 30">
  <g fill="#1B4ADD" clip-path="url(#arbitrum-one-icon-light_svg__a)">
    <path d="M15.356 1.862c.073 0 .141.019.209.055l11.002 6.399a.39.39 0 0 1 .202.356L26.727 21.4a.41.41 0 0 1-.21.356L15.48 28.081a.43.43 0 0 1-.418 0L4.058 21.684a.392.392 0 0 1-.202-.357l.042-12.729a.41.41 0 0 1 .21-.356l11.044-6.33a.468.468 0 0 1 .203-.05ZM15.362 0c-.393 0-.786.099-1.137.301L3.186 6.625a2.271 2.271 0 0 0-1.143 1.968L2 21.322c0 .811.43 1.56 1.13 1.973l11.002 6.398a2.275 2.275 0 0 0 2.275.006l11.038-6.324a2.27 2.27 0 0 0 1.144-1.966l.043-12.73c0-.81-.43-1.56-1.131-1.972L16.499.307A2.275 2.275 0 0 0 15.362 0Z"/>
    <path d="M17.593 6.939h-1.61a.284.284 0 0 0-.271.19l-5.187 14.216c-.037.092.037.19.135.19h1.61a.284.284 0 0 0 .27-.19L17.729 7.13c.037-.092-.037-.19-.135-.19Zm-2.821 0h-1.61a.284.284 0 0 0-.27.19L7.71 21.34c-.037.093.037.191.135.191h1.61a.284.284 0 0 0 .27-.19l5.182-14.21c.037-.093-.03-.191-.135-.191Zm2.09 5.507c-.043-.13-.228-.13-.27 0l-.836 2.298a.276.276 0 0 0 0 .197l2.335 6.399c.043.11.148.19.27.19h1.61c.1 0 .173-.098.136-.19l-3.245-8.894Zm6.06 8.894L18.27 8.58a.143.143 0 0 0-.271 0l-.836 2.298a.276.276 0 0 0 0 .197l3.743 10.265c.043.11.148.19.27.19h1.611a.138.138 0 0 0 .135-.19Z"/>
  </g>
  <defs>
    <clipPath id="arbitrum-one-icon-light_svg__a">
      <path fill="#fff" d="M2 0h26.632v30H2z"/>
    </clipPath>
  </defs>
</svg>
